Numix-Light/16/status/indicator-keyboard-Hi-3.svg

<?xml version="1.0" encoding="UTF-8" standalone="no"?>
<svg
   xmlns:dc="http://purl.org/dc/elements/1.1/"
   xmlns:cc="http://creativecommons.org/ns#"
   xmlns:rdf="http://www.w3.org/1999/02/22-rdf-syntax-ns#"
   xmlns:svg="http://www.w3.org/2000/svg"
   xmlns="http://www.w3.org/2000/svg"
   xmlns:sodipodi="http://sodipodi.sourceforge.net/DTD/sodipodi-0.dtd"
   xmlns:inkscape="http://www.inkscape.org/namespaces/inkscape"
   viewBox="0 0 16 16"
   id="svg2"
   version="1.1"
   inkscape:version="0.91 r13725"
   sodipodi:docname="indicator-keyboard-Hi-3.svg">
  <metadata
     id="metadata14">
    <rdf:RDF>
      <cc:Work
         rdf:about="">
        <dc:format>image/svg+xml</dc:format>
        <dc:type
           rdf:resource="http://purl.org/dc/dcmitype/StillImage" />
      </cc:Work>
    </rdf:RDF>
  </metadata>
  <defs
     id="defs12" />
  <sodipodi:namedview
     pagecolor="#ffffff"
     bordercolor="#666666"
     borderopacity="1"
     objecttolerance="10"
     gridtolerance="10"
     guidetolerance="10"
     inkscape:pageopacity="0"
     inkscape:pageshadow="2"
     inkscape:window-width="640"
     inkscape:window-height="480"
     id="namedview10"
     showgrid="false"
     inkscape:zoom="14.75"
     inkscape:cx="8"
     inkscape:cy="8"
     inkscape:window-x="65"
     inkscape:window-y="24"
     inkscape:window-maximized="0"
     inkscape:current-layer="svg2" />
  <path
     style="fill:#353535;fill-opacity:1"
     d="M 1.5996094 0 C 0.71320937 2.9605947e-16 0 0.71320937 0 1.5996094 L 0 14.400391 C 2.9605947e-16 15.286791 0.71320937 16 1.5996094 16 L 14.400391 16 C 15.286791 16 16 15.286791 16 14.400391 L 16 1.5996094 C 16 0.71320937 15.286791 0 14.400391 0 L 1.5996094 0 z M 9.2949219 4.5898438 C 9.4149219 4.5898438 9.5175625 4.6308438 9.6015625 4.7148438 C 9.6855625 4.7928438 9.7265625 4.9010625 9.7265625 5.0390625 C 9.7265625 5.1770625 9.6855625 5.2870937 9.6015625 5.3710938 C 9.5175625 5.4490937 9.4149219 5.4882813 9.2949219 5.4882812 C 9.1749219 5.4882812 9.0722813 5.4490937 8.9882812 5.3710938 C 8.9042812 5.2870937 8.8632812 5.1770625 8.8632812 5.0390625 C 8.8632812 4.9010625 8.9042812 4.7928438 8.9882812 4.7148438 C 9.0722812 4.6308438 9.1749219 4.5898437 9.2949219 4.5898438 z M 2.8203125 4.859375 L 3.4316406 4.859375 L 3.4316406 7.5683594 L 6.8164062 7.5683594 L 6.8164062 4.859375 L 7.4277344 4.859375 L 7.4277344 11.095703 L 6.8164062 11.095703 L 6.8164062 8.0996094 L 3.4316406 8.0996094 L 3.4316406 11.095703 L 2.8203125 11.095703 L 2.8203125 4.859375 z M 9.0078125 6.4433594 L 9.5917969 6.4433594 L 9.5917969 11.095703 L 9.0078125 11.095703 L 9.0078125 6.4433594 z M 11.810547 8.7539062 C 12.013347 8.7539062 12.187731 8.7793781 12.332031 8.8300781 C 12.480231 8.8807781 12.601719 8.953275 12.699219 9.046875 C 12.796719 9.136575 12.869216 9.2463 12.916016 9.375 C 12.962816 9.4997999 12.986328 9.6350031 12.986328 9.7832031 C 12.986328 10.021103 12.921669 10.217041 12.792969 10.369141 C 12.668169 10.517341 12.507494 10.625106 12.308594 10.691406 C 12.417794 10.718706 12.521647 10.759859 12.623047 10.818359 C 12.728347 10.872959 12.822397 10.945456 12.904297 11.035156 C 12.986197 11.120956 13.052816 11.226762 13.103516 11.351562 C 13.154216 11.476362 13.179688 11.623316 13.179688 11.791016 C 13.179688 11.962616 13.148337 12.119372 13.085938 12.263672 C 13.027437 12.407972 12.937306 12.535331 12.816406 12.644531 C 12.699406 12.749831 12.550487 12.834084 12.367188 12.896484 C 12.183887 12.954984 11.968356 12.984375 11.722656 12.984375 C 11.593956 12.984375 11.474434 12.974578 11.365234 12.955078 C 11.259934 12.939478 11.167838 12.919884 11.085938 12.896484 C 11.004038 12.873084 10.9335 12.849572 10.875 12.826172 C 10.8204 12.802772 10.779253 12.783178 10.751953 12.767578 L 10.851562 12.427734 C 10.874962 12.443334 10.91415 12.462928 10.96875 12.486328 C 11.02335 12.509728 11.088009 12.533241 11.162109 12.556641 C 11.240109 12.576141 11.324369 12.593775 11.417969 12.609375 C 11.515469 12.624975 11.621275 12.632813 11.734375 12.632812 C 12.104875 12.632812 12.37135 12.556397 12.53125 12.404297 C 12.69115 12.248297 12.769531 12.040597 12.769531 11.779297 C 12.769531 11.607697 12.736222 11.464663 12.669922 11.351562 C 12.607522 11.238462 12.521303 11.148331 12.408203 11.082031 C 12.299003 11.011831 12.169684 10.962847 12.021484 10.935547 C 11.877184 10.904347 11.722394 10.888672 11.558594 10.888672 L 11.5 10.888672 L 11.5 10.574219 L 11.634766 10.574219 C 11.740066 10.574219 11.847831 10.564422 11.957031 10.544922 C 12.070131 10.521522 12.172019 10.480375 12.261719 10.421875 C 12.355319 10.363375 12.431734 10.285 12.490234 10.1875 C 12.552634 10.09 12.582031 9.9646001 12.582031 9.8125 C 12.582031 9.6838 12.562431 9.5760281 12.519531 9.4863281 C 12.476631 9.3927281 12.41785 9.3182719 12.34375 9.2636719 C 12.27355 9.2090719 12.189297 9.1698844 12.091797 9.1464844 C 11.998197 9.1191844 11.898269 9.1054687 11.792969 9.1054688 C 11.582369 9.1054688 11.419734 9.1348594 11.302734 9.1933594 C 11.185734 9.2518594 11.089725 9.3067219 11.015625 9.3574219 L 10.851562 9.0585938 C 10.890563 9.0312937 10.939547 8.9999438 10.998047 8.9648438 C 11.060447 8.9297438 11.132944 8.8964344 11.214844 8.8652344 C 11.296744 8.8340344 11.384922 8.8085625 11.482422 8.7890625 C 11.583822 8.7656625 11.693547 8.7539062 11.810547 8.7539062 z "
     id="path4" />
</svg>

<svg xmlns="http://www.w3.org/2000/svg" viewBox="0 0 16 16">
 <path d="m 1.6 0 c -0.886 0 -1.6 0.713 -1.6 1.6 l 0 12.801 c 0 0.886 0.713 1.6 1.6 1.6 l 12.801 0 c 0.886 0 1.6 -0.713 1.6 -1.6 l 0 -12.801 c 0 -0.886 -0.713 -1.6 -1.6 -1.6 l -12.801 0 z m 7.695 4.59 c 0.12 0 0.223 0.041 0.307 0.125 c 0.084 0.078 0.125 0.186 0.125 0.324 c 0 0.138 -0.041 0.248 -0.125 0.332 c -0.084 0.078 -0.187 0.117 -0.307 0.117 c -0.12 0 -0.223 -0.039 -0.307 -0.117 c -0.084 -0.084 -0.125 -0.194 -0.125 -0.332 c 0 -0.138 0.041 -0.246 0.125 -0.324 c 0.084 -0.084 0.187 -0.125 0.307 -0.125 z m -6.475 0.27 l 0.611 0 l 0 2.709 l 3.385 0 l 0 -2.709 l 0.611 0 l 0 6.236 l -0.611 0 l 0 -2.996 l -3.385 0 l 0 2.996 l -0.611 0 l 0 -6.236 z m 6.188 1.584 l 0.584 0 l 0 4.652 l -0.584 0 l 0 -4.652 z m 2.803 2.311 c 0.203 0 0.377 0.025 0.521 0.076 c 0.148 0.051 0.27 0.123 0.367 0.217 c 0.098 0.09 0.17 0.199 0.217 0.328 c 0.047 0.125 0.07 0.26 0.07 0.408 c 0 0.238 -0.065 0.434 -0.193 0.586 c -0.125 0.148 -0.285 0.256 -0.484 0.322 c 0.109 0.027 0.213 0.068 0.314 0.127 c 0.105 0.055 0.199 0.127 0.281 0.217 c 0.082 0.086 0.149 0.192 0.199 0.316 c 0.051 0.125 0.076 0.272 0.076 0.439 c 0 0.172 -0.031 0.328 -0.094 0.473 c -0.059 0.144 -0.149 0.272 -0.27 0.381 c -0.117 0.105 -0.266 0.19 -0.449 0.252 c -0.183 0.059 -0.399 0.088 -0.645 0.088 c -0.129 0 -0.248 -0.01 -0.357 -0.029 c -0.105 -0.016 -0.197 -0.035 -0.279 -0.059 c -0.082 -0.023 -0.152 -0.047 -0.211 -0.07 c -0.055 -0.023 -0.096 -0.043 -0.123 -0.059 l 0.1 -0.34 c 0.023 0.016 0.063 0.035 0.117 0.059 c 0.055 0.023 0.119 0.047 0.193 0.07 c 0.078 0.019 0.162 0.037 0.256 0.053 c 0.098 0.016 0.203 0.023 0.316 0.023 c 0.37 0 0.637 -0.076 0.797 -0.229 c 0.16 -0.156 0.238 -0.364 0.238 -0.625 c 0 -0.172 -0.033 -0.315 -0.1 -0.428 c -0.062 -0.113 -0.149 -0.203 -0.262 -0.27 c -0.109 -0.07 -0.239 -0.119 -0.387 -0.146 c -0.144 -0.031 -0.299 -0.047 -0.463 -0.047 l -0.059 0 l 0 -0.314 l 0.135 0 c 0.105 0 0.213 -0.01 0.322 -0.029 c 0.113 -0.023 0.215 -0.065 0.305 -0.123 c 0.094 -0.059 0.17 -0.137 0.229 -0.234 c 0.062 -0.098 0.092 -0.223 0.092 -0.375 c 0 -0.129 -0.02 -0.236 -0.063 -0.326 c -0.043 -0.094 -0.102 -0.168 -0.176 -0.223 c -0.07 -0.055 -0.154 -0.094 -0.252 -0.117 c -0.094 -0.027 -0.194 -0.041 -0.299 -0.041 c -0.211 0 -0.373 0.029 -0.49 0.088 c -0.117 0.059 -0.213 0.113 -0.287 0.164 l -0.164 -0.299 c 0.039 -0.027 0.088 -0.059 0.146 -0.094 c 0.062 -0.035 0.135 -0.068 0.217 -0.1 c 0.082 -0.031 0.17 -0.057 0.268 -0.076 c 0.101 -0.023 0.211 -0.035 0.328 -0.035 z" style="fill:#353535;fill-opacity:1"/>
</svg>
